!!!OTL: 1494. Der Schaefer und sein Schatz.
!!!ARE: Europa, Mitteleuropa, Deutschland, Ober - Hessen
!!!SCT: E1494
!!!TXL: @@DE
!!!YEM: Copyright 1995, estate of Helmut Schaffrath.
**kern	**text
*ICvox	*
*M3/4	*
*k[f#]	*
*G:	*
!LO:TX:a:t=Oberheſſ. Lied. Aus dem, "Schäferbund für die nördliche Wetterau."	!
{4d	Ei
=1	=1
4.g	Schä-
8f#	-fer,
8gL	wo
8bJ	.
=2	=2
4.a	ei-
8g	-leſt
8a/L	du
8ddJ	.
=3	=3
4b	hin?
4r}	.
{8gL	o-
8aJ	-der
=4	=4
4.b	führſt
8a	du
8bL	was
8ddJ	.
=5	=5
4cc	Fal-
4b	-ſches
4a	im
=6	=6
4g	Sinn?
4r}	.
=||	=||
{8g	Ei
8a	du
=7	=7
8b	hät-
8b	-teſt
8b	ja
8b	.
8b	kön-
8dd	-nen
=8	=8
4dd	bei
8ccL	mir
8bJ	.
(8cc	blei-
8b)}	-ben
=9	=9
{8a	und
8a	.
8a	mir
8a	.
8aL	die
8ccJ	.
=10	=10
4.b/	Ʒeit
8a	ver-
8bL	-trei-
8aJ}	-ben;
=11	=11
{4.g	a-
8f#	-ber
8gL	du
8bJ	.
=12	=12
4.a	haſt
8g	mich
8a/L	verkennt,
8ddJ	.
=13	=13
4b	.
4r}	.
{8g	und
8a	du
=14	=14
4.b	warſt
8a	ja
8b/L	von
8ddJ	der
=15	=15
4cc	Lie-
4b	-be
4a	verblendt.
=16	=16
4g	.
4r}	.
==	==
!!!AGN: Staende - Lied, Hirten -,  Schaefer - Lied, Liebe
!!!ONB: ESAC (Essen Associative Code) Database: ERK3
!!!AMT: simple triple
!!!AIN: vox
!!!EED: Helmut Schaffrath
!!!EEV: 1.0
!!!GTL: Staendelieder (Berufslieder). 3. Hirtenlieder. Schaeferlieder.
!!!URL-scan: https://rosdok.uni-rostock.de/mcrviewer/recordIdentifier/rosdok_ppn745177999/iview2/phys_0350.iview2?x=-128.77276441889285&y=1056.2561754281633&scale=0.5870222003877487&rotation=0&layout=singlePageLayout
!!!ENC: Anna Maria Matuszewska
!!!EEV: 2025/03/01
*-	*-
